X:193
T:Juliette
R:mazurka
A:Massif Central
O:France
M:3/4
L:1/8
Q:1/4=130
K:G
GA|BABdGA|BABdGB|AGAcFA|B2G2 GA|
BABdGA|BABdGB|AGAcFA|G4:|
|:(3FEF|A2 DFdc|c2B2 EF|GEFGcB|A4 (3FEF|
A2 DFdc|c2B2 EF|GFGABc|d4:|
|:Bd|GBDGBd|c2A2 Ac|FADFAc|B2G2 Bd|
GBDGBd|c2A2 Ac|FADFAF|G4:||
